Cloud/dashboard/static/tracks/dallas.svg

<?xml version="1.0" encoding="UTF-8"?>
<!-- Uploaded to: SVG Find, www.svgfind.com, Generator: SVG Find Mixer Tools -->
<svg fill="#000000" width="800px" height="800px" version="1.1" viewBox="144 144 512 512" xmlns="http://www.w3.org/2000/svg">
 <path d="m610.41 204.36c-2.8516-3.2891-6.9844-5.1875-11.34-5.2148l-53.398-0.33594c-3.1094 0-6.1953 0.77344-8.9297 2.2344l-36.449 19.461c-4.3281 2.3086-6.5898 6.9258-5.7539 11.758 0.83203 4.8242 4.5 8.418 9.3516 9.1484 21.289 3.1953 54.898 8.2578 63.168 9.5859 4.3438 0.69922 7.9102 3.4453 9.5352 7.3477 3.0039 7.2031-0.17969 17.918-8.9648 30.168-7.5273 10.5-17.156 23.516-26.773 36.238l-8.3555-6.375-26.23 34.379-4.957 0.84766-1.7656 16.441 7.1484-9.3711 26.773-35.09 4.2812 3.2656c-14.977 19.719-29.367 37.996-35.074 44.086-4.3984 4.6953-11.902 6.6406-17.426 7.4492-3.7422 0.54688-7.4688-0.95312-9.8164-3.8984l-32.887-41.16c-10.652-13.332-26.453-21.996-43.367-23.758-28.719-2.9922-51.262-2.9336-64.879 0.29688l-67.102 26.832c-5.3594 2.1523-7.9688 8.2656-5.8203 13.621l31.566 79.215c-11.363 5.7891-39.762 20.379-57.973 30.672-7.4727 4.2344-12.859 11.469-14.777 19.852l-7.6172 33.215c-0.31641 1.3906-1.4844 2.4102-2.9023 2.543l-14.371 1.3438c-4.3828 0.40234-8.043 3.6992-8.8984 8.0234l-0.32031 1.6484c-0.52734 2.6484 0.019531 5.332 1.5312 7.5625 1.5156 2.2305 3.8125 3.7266 6.4609 4.2188l89.965 16.746 1.7344 5.9922c1.1289 3.9062 4.4531 6.8359 8.4688 7.4531l83.598 12.957c6.3359 0.96484 12.086-3.2734 13.223-9.8867 0.12109-0.6875 0.96875-1.0234 1.4531-1.0352l169.67 28.027c1.3516 0.22656 2.6914 0.33203 4.0156 0.33203 12.066 0 22.469-9.0234 24.191-20.984 1.4531-10.02 1.2891-18.914-0.47266-26.434-4.1172-17.582-3.5859-21.199-2.8477-26.203l21.125-146.09c0.66406-4.6406-1.8828-9.168-6.1875-11.004l-8.332-3.6367 20.309-150.52c0.57812-4.3242-0.72266-8.6836-3.5781-11.965zm-26.93 161.1c-0.62109 4.6055 1.9219 9.0938 6.1953 10.922l8.3359 3.6328-21.012 145.27-0.10938 0.78906c-0.96875 6.543-1.3359 11.496 3.0078 30.051 1.4727 6.2656 1.5703 13.871 0.30469 22.613-1.1094 7.7031-8.3906 13.293-16.352 11.98l-169.67-28.027c-0.63672-0.10547-1.2656-0.15625-1.8867-0.15625-5.6328 0-10.422 4.0312-11.449 10.023-0.10156 0.59766-0.55078 1.1055-1.4375 1.0352l-83.758-13.098-1.7383-5.9961c-1.1094-3.8359-4.2383-6.668-8.1641-7.3906l-89.582-16.285 0.074219-1.4219 14.383-1.3438c5.8438-0.54297 10.66-4.7617 11.973-10.484l7.6172-33.215c1.2773-5.5781 4.8594-10.391 9.8242-13.203 18.027-10.195 46.27-24.695 57.57-30.457 4.8594-2.4688 6.9961-8.1562 4.9648-13.227l-31.547-79.23 66.008-26.453c12.391-2.832 33.902-2.8164 61.074 0.011719 14.188 1.4805 27.453 8.7539 36.398 19.953l32.887 41.16c4.625 5.7891 11.957 8.7578 19.344 7.6523 7.1406-1.0391 17.008-3.7266 23.438-10.59 10-10.668 45.555-57.188 65.812-85.457 14.016-19.555 13.234-32.613 10.098-40.121-3.0039-7.2148-9.5117-12.277-17.395-13.543-8.2852-1.332-41.949-6.4023-63.273-9.6055-0.19141-0.023438-0.63281-0.09375-0.74219-0.72266-0.10547-0.63281 0.29297-0.84375 0.46094-0.9375l36.453-19.461c1.2461-0.66797 2.6562-1.0195 4.1367-1.0195h0.003906l53.277 0.33594c1.418 0.011719 2.707 0.60156 3.6367 1.6719s1.3359 2.4297 1.1445 3.8359z"/>
</svg>

<?xml version="1.0" encoding="utf-8"?>
<svg fill="#000000" width="800px" height="800px" version="1.1" viewBox="144 144 512 512" xmlns="http://www.w3.org/2000/svg">
  <path d="M 610.41 204.36 C 607.558 201.071 603.426 199.173 599.07 199.145 L 545.672 198.809 C 542.563 198.809 539.477 199.583 536.742 201.044 L 500.293 220.505 C 495.965 222.813 493.703 227.43 494.539 232.263 C 495.371 237.087 499.039 240.681 503.891 241.411 C 525.18 244.606 558.789 249.669 567.059 250.997 C 571.403 251.696 574.969 254.442 576.594 258.345 C 579.598 265.548 576.414 276.263 567.629 288.513 C 560.102 299.013 508.384 366.844 502.677 372.934 C 498.278 377.629 490.775 379.574 485.251 380.383 C 481.509 380.93 477.782 379.43 475.434 376.485 L 442.547 335.325 C 431.895 321.993 416.094 313.329 399.18 311.567 C 370.461 308.574 347.918 308.633 334.301 311.863 L 267.199 338.695 C 261.84 340.848 259.231 346.961 261.379 352.316 L 292.945 431.531 C 281.582 437.321 253.183 451.91 234.972 462.203 C 227.499 466.438 222.113 473.672 220.195 482.055 L 212.578 515.271 C 212.262 516.661 211.094 517.681 209.676 517.814 L 195.305 519.157 C 190.922 519.56 187.262 522.857 186.406 527.181 L 186.086 528.829 C 185.559 531.477 186.105 534.161 187.617 536.392 C 189.133 538.622 191.43 540.118 194.078 540.61 L 284.043 557.356 L 285.777 563.349 C 286.906 567.255 290.231 570.184 294.246 570.802 L 377.844 583.759 C 384.18 584.724 389.93 580.485 391.067 573.872 C 391.188 573.184 392.036 572.849 392.52 572.837 L 562.19 600.864 C 563.542 601.09 564.882 601.196 566.206 601.196 C 578.272 601.196 588.675 592.172 590.397 580.212 C 591.85 570.192 591.686 561.298 589.924 553.778 C 585.807 536.196 586.338 532.579 587.077 527.575 L 608.202 381.485 C 608.866 376.844 606.319 372.317 602.014 370.481 L 593.682 366.844 L 613.991 216.324 C 614.569 212 613.268 207.64 610.413 204.359 L 610.41 204.36 Z M 583.48 365.46 C 582.859 370.066 585.402 374.554 589.675 376.382 L 598.011 380.015 L 576.999 525.285 L 576.89 526.074 C 575.921 532.617 575.554 537.57 579.898 556.125 C 581.37 562.391 581.468 569.996 580.202 578.738 C 579.093 586.441 571.812 592.031 563.85 590.718 L 394.18 562.691 C 393.544 562.585 392.915 562.535 392.294 562.535 C 386.661 562.535 381.872 566.566 380.845 572.558 C 380.743 573.155 380.294 573.663 379.407 573.593 L 295.649 560.495 L 293.911 554.499 C 292.801 550.663 289.672 547.831 285.747 547.108 L 196.165 530.823 L 196.239 529.401 L 210.622 528.057 C 216.466 527.515 221.282 523.296 222.595 517.573 L 230.212 484.358 C 231.489 478.78 235.072 473.967 240.036 471.155 C 258.063 460.96 286.306 446.46 297.606 440.698 C 302.466 438.23 304.602 432.542 302.571 427.471 L 271.024 348.241 L 337.032 321.788 C 349.423 318.956 370.934 318.972 398.106 321.8 C 412.294 323.281 425.559 330.554 434.504 341.753 L 467.391 382.913 C 472.016 388.702 479.348 391.671 486.735 390.566 C 493.876 389.526 503.743 386.839 510.173 379.976 C 520.173 369.308 555.728 322.788 575.985 294.519 C 590.001 274.964 589.219 261.906 586.083 254.398 C 583.079 247.183 576.571 242.121 568.688 240.855 C 560.403 239.523 526.739 234.452 505.415 231.249 C 505.224 231.226 504.782 231.155 504.673 230.526 C 504.567 229.894 504.966 229.683 505.134 229.589 L 541.587 210.128 C 542.833 209.46 544.243 209.108 545.724 209.108 L 545.727 209.108 L 599.004 209.444 C 600.422 209.456 601.711 210.046 602.641 211.116 C 603.571 212.187 603.977 213.546 603.786 214.952 L 583.48 365.46 Z"/>
</svg>
